svg/other/pickax_fill.svg

<?xml version="1.0" encoding="UTF-8"?>
<svg width="24px" height="24px" viewBox="0 0 24 24" version="1.1" xmlns="http://www.w3.org/2000/svg" xmlns:xlink="http://www.w3.org/1999/xlink">
    <title>pickax_fill</title>
    <g id="Icon" stroke="none" stroke-width="1" fill="none" fill-rule="evenodd">
        <g id="Other" transform="translate(-864.000000, -48.000000)" fill-rule="nonzero">
            <g id="pickax_fill" transform="translate(864.000000, 48.000000)">
                <path d="M24,0 L24,24 L0,24 L0,0 L24,0 Z M12.5935,23.2578 L12.5819,23.2595 L12.5109,23.295 L12.4919,23.2987 L12.4767,23.295 L12.4057,23.2595 C12.3958,23.2564 12.387,23.259 12.3821,23.2649 L12.378,23.2758 L12.3609,23.7031 L12.3659,23.7235 L12.3769,23.7357 L12.4805,23.8097 L12.4953,23.8136 L12.5071,23.8097 L12.6107,23.7357 L12.6233,23.7197 L12.6267,23.7031 L12.6096,23.2758 C12.6076,23.2657 12.601,23.2593 12.5935,23.2578 Z M12.8584,23.1453 L12.8445,23.1473 L12.6598,23.2397 L12.6499,23.2499 L12.6472,23.2611 L12.6651,23.6906 L12.6699,23.7034 L12.6784,23.7105 L12.8793,23.8032 C12.8914,23.8069 12.9022,23.803 12.9078,23.7952 L12.9118,23.7812 L12.8777,23.1665 C12.8753,23.1546 12.8674,23.147 12.8584,23.1453 Z M12.143,23.1473 C12.1332,23.1424 12.1222,23.1453 12.1156,23.1526 L12.1099,23.1665 L12.0758,23.7812 C12.0751,23.7927 12.0828,23.8019 12.0926,23.8046 L12.1083,23.8032 L12.3092,23.7105 L12.3186,23.7024 L12.3225,23.6906 L12.3404,23.2611 L12.3372,23.2485 L12.3278,23.2397 L12.143,23.1473 Z" id="MingCute"></path>
                <path d="M7.07892,5.66226 L7.02794,5.61438 C6.63427,5.24457 6.01809,5.25419 5.63616,5.63612 C5.25424,6.01804 5.24461,6.63423 5.61442,7.0279 L5.6623,7.07887 C3.94565,9.08527 2.85509,11.6365 3.24137,14.3175 C3.40007,15.111 4.37273,15.3836 4.92352,14.8347 C5.72098,13.8864 6.5238,12.9451 7.38937,12.0574 C7.94602,11.4865 8.47819,10.9858 8.95737,10.5865 L16.5746,18.6952 C16.7599,18.8924 17.0172,19.0061 17.2878,19.0105207 C17.5584,19.0146 17.8192,18.909 18.0105,18.7176 L18.7176,18.0105 C18.909,17.8191 19.0146,17.5584 19.0105207,17.2878 C19.0062,17.0172 18.8925,16.7598 18.6952,16.5745 L10.5866,8.95732 C10.9859,8.47815 11.4865,7.94599 12.0574,7.38936 C12.9168,6.5514 13.8255,5.77172 14.7461,5.00282 C15.4096,4.47203 15.1507,3.40801 14.3175,3.24137 C11.6365,2.85509 9.08531,3.94563 7.07892,5.66226 Z" id="路径" fill="#09244B"></path>
            </g>
        </g>
    </g>
</svg>

<svg xmlns="http://www.w3.org/2000/svg" width="24" height="24"><g fill="none" fill-rule="nonzero"><path d="M24 0v24H0V0h24ZM12.594 23.258l-.012.002-.071.035-.02.004-.014-.004-.071-.036c-.01-.003-.019 0-.024.006l-.004.01-.017.428.005.02.01.013.104.074.015.004.012-.004.104-.074.012-.016.004-.017-.017-.427c-.002-.01-.009-.017-.016-.018Zm.264-.113-.014.002-.184.093-.01.01-.003.011.018.43.005.012.008.008.201.092c.012.004.023 0 .029-.008l.004-.014-.034-.614c-.003-.012-.01-.02-.02-.022Zm-.715.002a.023.023 0 0 0-.027.006l-.006.014-.034.614c0 .012.007.02.017.024l.015-.002.201-.093.01-.008.003-.011.018-.43-.003-.012-.01-.01-.184-.092Z"/><path fill="#09244B" d="m7.079 5.662-.051-.048a1 1 0 0 0-1.414 1.414l.048.05c-1.716 2.007-2.807 4.559-2.42 7.24a1 1 0 0 0 1.682.517c.797-.949 1.6-1.89 2.465-2.778a21.29 21.29 0 0 1 1.568-1.47l7.618 8.108a1.001 1.001 0 0 0 1.436.023l.707-.707a1 1 0 0 0-.023-1.436l-8.108-7.618c.399-.479.9-1.011 1.47-1.568.86-.838 1.768-1.617 2.69-2.386a1 1 0 0 0-.43-1.762c-2.68-.386-5.232.705-7.238 2.421Z"/></g></svg>
